X:1
T:Title
%%score { ( 1 3 ) | ( 2 4 ) }
L:1/8
Q:1/4=90
M:6/8
K:F
V:1 treble nm="Grand Piano"
V:3 treble 
V:2 bass 
V:4 bass 
V:1
 A2 A F>GA | c2 c A2 [GA] | [^FA]>[FB][FA] [Fd]2 [DAc] |[M:5/8] [DGB]-[DGB]- [DGB]3 | %4
w: Robert~Harkness * * * *||||
[M:1/8] [DGB] |[M:3/4] [CGB]2 [CFB]B- B/A/G | c2 c A2 A | G>G G =B2 G | [Ec]6 | A2 AF- F/G/A | %10
w: ||||||
 c2 c A3 | A>A [CDA][CA] AA | [EB]->[CE-B-] [CE-B-] [CEB]3 | [EB]2 [EB][EB]- [EB]/[Ec]/[Ed] | %14
w: ||||
 d2 c A2 A | [Fc]>[DFB] [CFA][Ec] [EB]G |[M:5/8] F-F- F3 |] %17
w: |||
V:2
 [F,CF]2 [F,CF] [F,A,]>[F,B,F][F,CF] | [A,CF]2 [A,CF][K:bass] [F,CF]2 [E,^C] | %2
 [D,D]>[D,D][D,D] [D,A,]2 D, |[M:5/8] G,-G,- G,3 |[M:1/8] F, |[M:3/4] E,2 D, C,2[K:treble] [B,CE] | %6
 [A,CF]2[K:bass] [G,B,E] [F,CF]2 [^F,C_E] | [G,CE]>[G,DF] [G,CE] [G,DF]2 [G,=B,F] | [C,C]6 | %9
 [F,CF]2 [F,CF][F,A,]- [F,A,]/[K:treble][F,B,F]/[F,CF] | [A,CF]2 [A,CF] [F,CF]3 | %11
 F>E[K:bass] .F,2[K:treble] FD | G,>G, G,[K:bass] C,3 | %13
 [C,G,]2 [C,G,][C,G,]- [C,G,]/[C,A,]/[C,B,] | [F,B,F]2 [F,A,F] [F,CF]2 [F,CF] | %15
 [C,A,]>C, C,[C,G,] [C,G,][C,B,C] |[M:5/8] [F,A,C]-[F,A,C]- [F,A,C]3 |] %17
V:3
 x6 | x6 | x6 |[M:5/8] x5 |[M:1/8] x |[M:3/4] z2 z .[CE]3 | x6 | x6 | x6 | x6 | x6 | x6 | %12
 C2 z2 z2 | x6 | x6 | x6 |[M:5/8] x5 |] %17
V:4
 x6 | x3[K:bass] x3 | x6 |[M:5/8] x5 |[M:1/8] x |[M:3/4] x5[K:treble] x | x2[K:bass] x4 | x6 | x6 | %9
 x9/2[K:treble] x3/2 | x6 | [F,C]2[K:bass] z C,3[K:treble] | x3[K:bass] x3 | x6 | x6 | x6 | %16
[M:5/8] x5 |] %17

